X:28
T: Winterrosen
N: Q1145F
O: Mitteleuropa, Deutschland
N: Melodievergleich zu Q0145G ff, anderes Lied.
N: Pausen an den Enden der 4. und 8. Zeile korrigiert.
R: ???
M: 2/4
L: 1/8
K: G
D2 | G2BG | A2c
A | BdcB | A2
D2 | G2BG | A2c
A | BdcB | A2z
B | ccec | BdB
G | AcAF | GBd
B | ccec | BdB
G | AcAA | G2

